X:374
T:Morison Avenue 
C:Joe Buchanan's Scottish Tome - Page 039.0
I:039 0
C:P.M. H. Summer
R:March
Z:Carl Allison
L:1/8
M:4/4
K:C
B | A2Ad df>fa | B<dg>d B>AGB | A2 Ad d<ffa | e>feB edcB |
A2Ad d<ffa | B<GB>d g>dBe | c>BAc eAce | g>eAe d3 :|
A | f2 f>g a>gfd | B<dg>d B>AGB | A2 Ad f2 fa | e>feB edcB |
f2 f>g a>gfd | B<GB<d g>dBe | c>BAc eAce | g>eAe d3 :|
A2 Ad f3 d | B<dde d>BAB | A2 Ad faaf | e>feB edcB |
A2 Ad f3 d | B<GB<d g>dBe | c>BAc eAAce | g>eAe d3 :|
a | f>ede f<aaf | g>dBA B<ddA | G>ede f<aaf | e>feB edcB |
a | f>ede f<aaf | B<GB<d f>dBe | c>BAc eAce | G>eAe d3 :|

